!!!COM: Music21
!!!OTL: slide_Wearied-Lad--The
!!!OMV: slide_Wearied-Lad--The
**kern
*clefG2
*k[f#]
*G:
*M12/8
=1
8d
=
4g
8a
8bL
8a
8gJ
8aL
8g
8f#J
8gL
8f#
8dJ
=
4g
8a
8bL
8dd
8bJ
8ccL
8a
8gJ
4f#
8d
=
4g
8a
8bL
8a
8gJ
8aL
8g
8f#J
8gL
8f#
8dJ
!!linebreak:original
=
8ffnL
8aaJ
8ggL
8ff#X
8eeJ
8ddL
8cc
8a
8f#XJ
4g
8ryy
=||
8a
1ryy
4.ryy
=
8ddL
8ee
8ddJ
8ddL
8cc
8aJ
4dd
8g
4g
8a
=
8ddL
8ee
8ddJ
8ddL
8cc
8aJ
8ccL
8a
8gJ
8f#L
8g
8aJ
!!linebreak:original
=
8ddL
8ee
8ddJ
8ddL
8cc
8aJ
4dd
8g
4g
16ddLL
16eeJJ
=
8ffnL
8aaJ
8ggL
8ff#X
8eeJ
8ddL
8cc
8a
8f#XJ
4g
8ryy
=||
8dd
1ryy
4.ryy
=
8ggL
8aa
8bbJ
4aa
8gg
4aa
8gg
4gg
8dd
!!linebreak:original
=
8ggL
8aa
8bbJ
4aa
8gg
4aa
8gg
4ff#
8dd
=
8ggL
8aa
8bbJ
4aa
8gg
4aa
8gg
4gg
16ddLL
16eeJJ
=
8ffnL
8aaJ
8ggL
8ff#X
8eeJ
8ddL
8cc
8a
8f#XJ
4g
8ryy
=||
16gLL
16aJJ
1ryy
4.ryy
!!linebreak:original
=
16bLL
16ccJ
8b
8gJ
16aLL
16ccJ
8a
8gJ
4dd
8g
4g
8a
=
16bLL
16ccJ
8b
8gJ
16aLL
16ccJ
8a
8gJ
8ccL
8a
8gJ
8f#L
8g
8aJ
=
8b-XL
8a
8gJ
8aL
8g
8f#J
8gL
8f#
8dJ
8fnL
8g
8aJ
!!linebreak:original
=
8ffnL
8aaJ
8ggL
8ff#X
8eeJ
8ddL
8cc
8a
8f#XJ
4g
8ryy
=||
*-
